src/16/actions/zoom-previous.svg

<svg xmlns="http://www.w3.org/2000/svg" viewBox="0 0 16 16">
  <defs id="defs3051">
    <style type="text/css" id="current-color-scheme">
      .ColorScheme-Text {
        color:#5d656b;
      }
      </style>
  </defs>
 <path style="fill:currentColor;fill-opacity:1;stroke:none" 
       d="M 2 2 L 2 5 L 3 5 L 3 3 L 5 3 L 5 2 L 3 2 L 2 2 z M 11 2 L 11 3 L 13 3 L 13 5 L 14 5 L 14 2 L 13 2 L 11 2 z M 9.0605469 5.171875 L 8.1113281 6.1210938 L 6.2324219 8 L 8.1113281 9.8789062 L 9.0605469 10.828125 L 9.7675781 10.121094 L 8.8183594 9.171875 L 7.6464844 8 L 8.8183594 6.828125 L 9.7675781 5.8789062 L 9.0605469 5.171875 z M 2 11 L 2 14 L 3 14 L 5 14 L 5 13 L 3 13 L 3 11 L 2 11 z M 13 11 L 13 13 L 11 13 L 11 14 L 14 14 L 14 13 L 14 11 L 13 11 z "
     class="ColorScheme-Text"
     />
</svg>

<svg xmlns="http://www.w3.org/2000/svg" viewBox="0 0 16 16"><path d="M2 2v3h1V3h2V2H2zm9 0v1h2v2h1V2h-3zM9.06 5.172l-.949.95L6.232 8l1.88 1.879.949.95.707-.708-.95-.95L7.646 8l1.172-1.172.95-.95-.707-.706zM2 11v3h3v-1H3v-2H2zm11 0v2h-2v1h3v-3h-1z" fill="currentColor" color="#5d656b"/></svg>
